X:2040
T:Butchers Hornpipe
R:.Hornpipe
C:Trad.
O:England
Z:Paul Hardy's Session Tunebook 2015 (see www.paulhardy.net). Creative Commons cc by-nc-sa licenced.
M:4/4
L:1/8
Q:1/4=160
K:G
DB,|"G"G,B,DB, G,B,DB,|G,2G2 G2AF|"D"DFAF DFAF|D2d2 d2cB|
"C"cdec "G"BcdB|"D"ABcd "Em"efg2|"C"gdec "G"dBAG|"D"D2"G"G2G2:|
|:Bc|"G"dBGB dBGB|"Am"ecAc ecAc|"G"gfed "Em"efga|"D"f2d2"G"d2cB|
"C"cdec "G"BcdB|"D"ABcd "Em"efg2|"C"gdec "G"dBAG|"D"D2"G"G2G2:|

